img/ui/icons/Bonus.svg

<svg width="25" height="26" viewBox="0 0 25 26" fill="none" xmlns="http://www.w3.org/2000/svg">
<path d="M14.5835 9.69189H11.979C11.5646 9.69189 11.1672 9.85651 10.8741 10.1495C10.5811 10.4426 10.4165 10.84 10.4165 11.2544C10.4165 11.6688 10.5811 12.0662 10.8741 12.3592C11.1672 12.6523 11.5646 12.8169 11.979 12.8169H13.021C13.4354 12.8169 13.8328 12.9815 14.1259 13.2745C14.4189 13.5676 14.5835 13.965 14.5835 14.3794C14.5835 14.7938 14.4189 15.1912 14.1259 15.4842C13.8328 15.7773 13.4354 15.9419 13.021 15.9419H10.4165M12.5 16.9834V15.9419M12.5 9.69189V8.65039M21.875 6.56689C21.875 6.29067 21.7653 6.02576 21.57 5.83044C21.3746 5.63512 21.1097 5.52539 20.8335 5.52539H17.7085C17.7085 6.63042 18.1475 7.69018 18.9288 8.47155C19.7102 9.25292 20.77 9.69189 21.875 9.69189V6.56689ZM3.125 9.69189C4.23002 9.69189 5.28979 9.25292 6.07116 8.47155C6.85253 7.69018 7.2915 6.63042 7.2915 5.52539H4.1665C3.89028 5.52539 3.62537 5.63512 3.43005 5.83044C3.23473 6.02576 3.125 6.29067 3.125 6.56689V9.69189ZM21.875 15.9419C20.77 15.9419 19.7102 16.3809 18.9288 17.1622C18.1475 17.9436 17.7085 19.0034 17.7085 20.1084H20.8335C21.1097 20.1084 21.3746 19.9987 21.57 19.8033C21.7653 19.608 21.875 19.3431 21.875 19.0669V15.9419ZM3.125 19.0669C3.125 19.3431 3.23473 19.608 3.43005 19.8033C3.62537 19.9987 3.89028 20.1084 4.1665 20.1084H7.2915C7.2915 19.0034 6.85253 17.9436 6.07116 17.1622C5.28979 16.3809 4.23002 15.9419 3.125 15.9419V19.0669Z" stroke="currentColor" stroke-width="1.5" stroke-linecap="round" stroke-linejoin="round"/>
<path d="M20.8335 5.52539H4.1665C3.5915 5.52539 3.125 5.99139 3.125 6.56689V19.0669C3.125 19.6419 3.5915 20.1084 4.1665 20.1084H20.8335C21.4085 20.1084 21.875 19.6424 21.875 19.0669V6.56689C21.875 5.99189 21.4085 5.52539 20.8335 5.52539Z" stroke="currentColor" stroke-width="1.5" stroke-linecap="round" stroke-linejoin="round"/>
</svg>

<svg width="25" height="26" fill="none" xmlns="http://www.w3.org/2000/svg"><path d="M14.584 9.692h-2.605a1.563 1.563 0 0 0 0 3.125h1.042a1.563 1.563 0 0 1 0 3.125h-2.605m2.084 1.041v-1.041m0-6.25V8.65m9.375-2.083a1.042 1.042 0 0 0-1.041-1.042h-3.125a4.167 4.167 0 0 0 4.166 4.167V6.567ZM3.125 9.692a4.167 4.167 0 0 0 4.167-4.167H4.167a1.042 1.042 0 0 0-1.042 1.042v3.125Zm18.75 6.25a4.167 4.167 0 0 0-4.166 4.166h3.125a1.042 1.042 0 0 0 1.041-1.041v-3.125Zm-18.75 3.125a1.041 1.041 0 0 0 1.042 1.041h3.125a4.167 4.167 0 0 0-4.167-4.166v3.125Z" stroke="currentColor" stroke-width="1.5" stroke-linecap="round" stroke-linejoin="round"/><path d="M20.834 5.525H4.166c-.575 0-1.041.466-1.041 1.042v12.5c0 .575.466 1.041 1.042 1.041h16.667c.575 0 1.041-.466 1.041-1.041v-12.5c0-.575-.466-1.042-1.041-1.042Z" stroke="currentColor" stroke-width="1.5" stroke-linecap="round" stroke-linejoin="round"/></svg>
